img/footer-vk.svg

<svg width="25" height="25" viewBox="0 0 25 25" fill="none" xmlns="http://www.w3.org/2000/svg">
<g clip-path="url(#clip0_96182_14)">
<path d="M12.5 0C5.59815 0 0 5.59815 0 12.5C0 19.4018 5.59815 25 12.5 25C19.4018 25 25 19.4018 25 12.5C25 5.59815 19.4018 0 12.5 0ZM18.8394 13.8548C19.4274 14.4172 20.0409 14.954 20.5521 15.593C20.7822 15.8742 21.0122 16.1554 21.1656 16.4877C21.3957 16.9478 21.1912 17.4591 20.7822 17.4846H18.226C17.5613 17.5358 17.0501 17.2801 16.59 16.82C16.2321 16.4622 15.8998 16.0787 15.5675 15.6953C15.4397 15.5419 15.2863 15.3885 15.1073 15.2863C14.7495 15.0562 14.4427 15.1329 14.2638 15.4908C14.0593 15.8742 14.0082 16.2832 13.9826 16.6922C13.957 17.3057 13.7781 17.4591 13.1646 17.4846C11.8609 17.5358 10.6339 17.3568 9.50919 16.6922C8.51226 16.1043 7.71983 15.3118 7.05521 14.3916C5.72597 12.6022 4.72903 10.6339 3.80879 8.61451C3.60429 8.15439 3.75767 7.92433 4.26891 7.89876C5.11247 7.8732 5.93046 7.8732 6.77402 7.89876C7.10633 7.89876 7.33639 8.10326 7.46421 8.41001C7.92433 9.50919 8.46114 10.5828 9.15132 11.5542C9.33026 11.8098 9.53475 12.0654 9.79038 12.2699C10.0971 12.4744 10.3016 12.3977 10.455 12.0654C10.5317 11.8609 10.5828 11.6309 10.6084 11.4008C10.6851 10.6339 10.6851 9.86707 10.5572 9.10019C10.4806 8.58895 10.2249 8.2822 9.73925 8.17995C9.48363 8.12883 9.53476 8.05214 9.637 7.89876C9.8415 7.6687 10.046 7.51533 10.4294 7.51533H13.318C13.7781 7.61758 13.8804 7.79652 13.9315 8.25664V11.4775C13.9315 11.6564 14.0082 12.1932 14.3405 12.2955C14.5961 12.3722 14.775 12.1677 14.9284 12.0143C15.6186 11.273 16.1043 10.4039 16.5644 9.50919C16.7689 9.10019 16.9223 8.6912 17.1012 8.2822C17.229 7.97545 17.408 7.82208 17.7658 7.82208H20.5521C20.6288 7.82208 20.7055 7.82208 20.8078 7.84764C21.2679 7.92433 21.3957 8.12883 21.2679 8.58895C21.0378 9.30469 20.6033 9.91819 20.1687 10.5061C19.7086 11.1452 19.1973 11.7587 18.7372 12.4233C18.2771 13.0368 18.3026 13.3435 18.8394 13.8548Z" fill="#999999"/>
</g>
<defs>
<clipPath id="clip0_96182_14">
<rect width="25" height="25" fill="white"/>
</clipPath>
</defs>
</svg>

<svg width="25" height="25" fill="none" xmlns="http://www.w3.org/2000/svg"><g clip-path="url(#a)"><path d="M12.5 0C5.598 0 0 5.598 0 12.5S5.598 25 12.5 25 25 19.402 25 12.5 19.402 0 12.5 0Zm6.34 13.855c.587.562 1.2 1.099 1.712 1.738.23.281.46.562.614.895.23.46.025.971-.384.997h-2.556c-.665.05-1.176-.205-1.636-.665-.358-.358-.69-.741-1.022-1.125a1.762 1.762 0 0 0-.46-.409c-.359-.23-.665-.153-.844.205-.205.383-.256.792-.281 1.201-.026.614-.205.767-.818.793-1.304.05-2.531-.128-3.656-.793-.997-.588-1.79-1.38-2.454-2.3-1.329-1.79-2.326-3.758-3.246-5.777-.205-.46-.051-.69.46-.716a40.93 40.93 0 0 1 2.505 0c.332 0 .562.204.69.511.46 1.1.997 2.173 1.687 3.144.18.256.384.511.64.716.306.204.51.128.664-.205.077-.204.128-.434.153-.664a8.668 8.668 0 0 0-.05-2.3c-.077-.512-.333-.819-.819-.921-.255-.051-.204-.128-.102-.281.204-.23.409-.384.792-.384h2.889c.46.103.562.282.614.742v3.22c0 .18.076.716.409.819.255.076.434-.128.587-.282.69-.741 1.176-1.61 1.636-2.505.205-.409.358-.818.537-1.227.128-.307.307-.46.665-.46h2.786c.077 0 .154 0 .256.026.46.076.588.28.46.741-.23.716-.665 1.33-1.1 1.917-.46.64-.97 1.253-1.43 1.917-.46.614-.435.92.101 1.432Z" fill="#999"/></g><defs><clipPath id="a"><path fill="#fff" d="M0 0h25v25H0z"/></clipPath></defs></svg>
